X:14161
%2808
T:Centennial Schottische
C:Andy De Jarlis
M:4/4
L:1/8
K:Cmaj
G2|c3/2B/2c3/2d/2 e2 G2|c3/2d/2e3/2f/2 e2 g2|a2 d2 f2 B2|(3cdB c3/2e/2 G4|!
c3/2B/2c3/2d/2 e2 G2|c3/2d/2e3/2f/2 e2 g2|a2 d2 f3/2d/2B3/2d/2|c2 e2 c2 G2|!
c3/2B/2c3/2d/2 e2 G2|c3/2d/2e3/2f/2 e2 g2|a2 d2 f2 B2|c3/2d/2c3/2e/2 G4|!
c3/2B/2c3/2d
